X:171
T:Gökens polska
T:ur Alfred Anderssons notbok
B:Alfred Anderssons notbok (pdf) nr 171 sid 206
O:Lotorp, Östergötland
R:Polska
N:Jämför med +.
L:1/16
M:3/4
Z:Nils L
K:G
G2>A2 (Bc)BA G2>A2 | (BA)Bc (c2d2) d4 | (d2g2) g2b2 b2g2 | g2fg (ab)ag f2d2 | 
g2bg d2gd B2dB | A2GA G4 G,4 :: g4 d8 | e2fe d2ed c2B2 | g4 d8 | 
e2fe d2ed c2B2 | B2AB c2Ac B2GB | A2FA G4 G,4 :|

